src/DGGeoclicker/skin/dark/img/DGSchedule__clockOff_dark.svg

<svg xmlns="http://www.w3.org/2000/svg" width="11" height="11"><path fill-rule="evenodd" clip-rule="evenodd" fill="#A0A0A0" d="M5.5 11c-3.037 0-5.5-2.463-5.5-5.5 0-3.038 2.463-5.5 5.5-5.5s5.5 2.462 5.5 5.5c0 3.037-2.463 5.5-5.5 5.5zm.5-5.707v-3.293h-1v3.707l2.646 2.646.707-.707-2.353-2.353z"/></svg>

<svg xmlns="http://www.w3.org/2000/svg" width="11" height="11">
    <path d="M 5.5,11 C 2.463,11 0,8.537 0,5.5 0,2.462 2.463,0 5.5,0 8.537,0 11,2.462 11,5.5 11,8.537 8.537,11 5.5,11 z M 6,5.293 V 2 H 5 V 5.707 L 7.646,8.353 8.353,7.646 6,5.293 z" fill="#a0a0a0" fill-rule="evenodd"/>
</svg>
